public/assets/img/bittrex.svg

<svg width="24" height="24" viewBox="0 0 24 24" fill="none" xmlns="http://www.w3.org/2000/svg">
<path d="M12.1644 2C17.713 2 22.2101 6.47656 22.2101 12C22.2101 17.5234 17.713 22 12.1644 22C6.61573 22 2.11873 17.5234 2.11873 12C2.11873 6.47656 6.61573 2 12.1644 2Z" fill="#1CBCFF"/>
<path d="M18.0244 14.3346V5.75H9.40848V8.28739H10.9791V7.31491H16.4425V12.7586H14.4905V9.24869H5.88585V17.8333H14.5017V15.2959H12.9311V16.2684H7.45645V10.8248H9.40848V14.3346H18.0244ZM10.9791 10.8248H12.9311V12.7697H10.9791V10.8248Z" fill="white"/>
</svg>

<svg width="24" height="24" fill="none" xmlns="http://www.w3.org/2000/svg"><path d="M12.164 2C17.713 2 22.21 6.477 22.21 12s-4.497 10-10.046 10C6.616 22 2.12 17.523 2.12 12S6.616 2 12.164 2Z" fill="#1CBCFF"/><path d="M18.024 14.335V5.75H9.408v2.537h1.571v-.972h5.463v5.444h-1.951v-3.51H5.886v8.584h8.616v-2.537h-1.57v.972H7.455v-5.443h1.952v3.51h8.616Zm-7.045-3.51h1.952v1.945H10.98v-1.945Z" fill="#fff"/></svg>
